public/assets/img/svg/upload_image_iwej.svg

<svg data-name="Layer 1" xmlns="http://www.w3.org/2000/svg" width="760" height="693.824"><ellipse cx="185" cy="248.5" rx="52" ry="63.5" fill="#2f2e41"/><path d="M141.5 653.5l-30 3s-10 18-28 18-12 20 14 18 54-9 55-11-3-29-11-28z" fill="#3f3d56"/><path d="M141.5 653.5l-30 3s-10 18-28 18-12 20 14 18 54-9 55-11-3-29-11-28z" opacity=".1"/><path d="M99.5 478.5s34 5 47 21 4-61 4-61l-4-35-27 2-22 45z" fill="#3f3d56"/><path d="M99.5 478.5s34 5 47 21 4-61 4-61l-4-35-27 2-22 45z" opacity=".1"/><path d="M211.5 278.5s16-44 0-45-14 43-14 43z" fill="#a0616a"/><path d="M5 131h32.492A2.508 2.508 0 0 1 40 133.508v13.984A2.508 2.508 0 0 1 37.492 150H5v-19z" fill="#21a32f"/><path d="M2.646 131h32.846A2.508 2.508 0 0 1 38 133.508v13.984A2.508 2.508 0 0 1 35.492 150H2.646A2.646 2.646 0 0 1 0 147.354v-13.708A2.646 2.646 0 0 1 2.646 131z" fill="#2f2e41"/><circle cx="30" cy="140" r="2" fill="#21a32f"/><path d="M27.5 153.5s-25-48-27-25 13 42 13 42z" fill="#a0616a"/><path d="M173.011 268.59S195 270 197 282s-16 49-16 49l-24-2-3-24z" fill="#3f3d56"/><path d="M145.5 233.5s8 41-18 24 10 30 10 30 28 7 37-2-13.5-10.5-1-46c13.438-38.163-28-6-28-6z" fill="#a0616a"/><path d="M145.5 233.5s8 41-18 24 10 30 10 30 28 7 37-2-13.5-10.5-1-46c13.438-38.163-28-6-28-6z" opacity=".1"/><path d="M57 374s22.5 163.5 29.5 173.5 31 100 31 100l26-9a119.775 119.775 0 0 1-1-33c2-18-15-66-15-66l-25-148z" fill="#2f2e41"/><path d="M57 374s22.5 163.5 29.5 173.5 31 100 31 100l26-9a119.775 119.775 0 0 1-1-33c2-18-15-66-15-66l-25-148z" opacity=".1"/><path d="M51.5 366.5l22 63s-46 83-8 110c0 0 44 48 48 90 0 0 23-2 26-20 0 0-21-46-22-62s-24-35-24-35 44-71 54-83 11-58-14-58-82-5-82-5z" fill="#2f2e41"/><path d="M137.5 609.5s-17 21-22 18c0 0-4 43-13 55s19 11 29 0 29-53 29-58-17-18-23-15z" fill="#3f3d56"/><circle cx="162.5" cy="223.5" r="27" fill="#a0616a"/><path d="M133.5 255.5s1 17 16 21 27-6 27-6l4 8-13 32-24 78s-71 10-77-7 10-65 10-65l23-33 9-22 10-11z" fill="#21a32f"/><path d="M139.5 259.5S124 244 114 244s-18.5-6.5-18.5-6.5-33 48-53 106-48 76-34 90 36 11 45 26 9 13 15-10-1-86 28-113 43-77 43-77z" fill="#3f3d56"/><path d="M98.5 240.5s-40-36-45-51-24-43-28-39-26 13-21 20 17 16 24 41 56 57 56 57zm73 28s-17 1-27 54-9 177 0 187c0 0 9 11 10-9s16-113 12-137 5-76 18-85-13-10-13-10z" fill="#3f3d56"/><path d="M162.5 312.5s33 15 32 26-2 33-43-3z" fill="#3f3d56"/><path d="M174.5 312.5s-14 33 4 39 23-28 23-28 14-38 13-46-21-9-23-4-17 39-17 39z" fill="#3f3d56"/><ellipse cx="185" cy="251" rx="12" ry="44" fill="#2f2e41"/><ellipse cx="176" cy="201.5" rx="36" ry="17.5" fill="#2f2e41"/><path d="M179 217c-19.882 0-36-7.835-36-17.5 0-3.408 2.01-6.586 5.477-9.276-5.286 3.046-8.477 6.98-8.477 11.276 0 9.665 16.118 17.5 36 17.5 12.872 0 14.043-2 3-2z" opacity=".1"/><path d="M224.613 567.265a20.813 20.813 0 1 0 8.339-39.133l-.986 10.68-3.731-9.8a20.734 20.734 0 0 0-12.222 10.11 20.408 20.408 0 0 0-1.974 5.406 20.809 20.809 0 0 0 10.574 22.737z" fill="#57b894"/><path d="M232.029 693.797c-.495-9.271 8.313-16.181 16.631-20.306s17.9-7.978 21.735-16.433c5.513-12.15-3.918-25.329-11.12-36.561a125.3 125.3 0 0 1-12.92-26.63c-1.297-3.752-2.428-7.642-2.347-11.61.116-5.717 2.712-11.053 5.29-16.156q12.88-25.498 26.954-50.369" fill="none" stroke="#3f3d56" stroke-miterlimit="10"/><path d="M225.848 564.655a20.813 20.813 0 1 0 8.339-39.133l-.986 10.68-3.731-9.8a20.734 20.734 0 0 0-12.221 10.109 20.409 20.409 0 0 0-1.975 5.406 20.809 20.809 0 0 0 10.574 22.738z" fill="none" stroke="#3f3d56" stroke-miterlimit="10"/><path d="M255.608 509.074a20.788 20.788 0 0 1 16.682-10.968l.27 10.323 4.644-10.145a20.81 20.81 0 1 1-21.596 10.79z" fill="#57b894"/><path d="M257.255 505.593a20.788 20.788 0 0 1 16.682-10.968l.27 10.323 4.644-10.144a20.81 20.81 0 1 1-21.596 10.789z" fill="none" stroke="#3f3d56" stroke-miterlimit="10"/><path d="M255.628 620.19a20.81 20.81 0 0 0 23.426-34.076l-3.569 7.796-.27-10.445a.364.364 0 0 0-.05-.027 20.811 20.811 0 1 0-19.537 36.751z" fill="#57b894"/><path d="M257.13 616.64a20.81 20.81 0 0 0 23.427-34.075l-3.57 7.796-.269-10.445a.364.364 0 0 0-.05-.027 20.811 20.811 0 1 0-19.537 36.751z" fill="none" stroke="#3f3d56" stroke-miterlimit="10"/><path d="M229.33 651.374a20.801 20.801 0 1 0 6.256-15.574l7.225 15.118-11.507-9.11a20.616 20.616 0 0 0-1.973 9.566z" fill="#57b894"/><path d="M230.566 648.763a20.801 20.801 0 1 0 6.255-15.574l7.225 15.118-11.506-9.11a20.617 20.617 0 0 0-1.974 9.566zM4.5 691.5h407" fill="none" stroke="#3f3d56" stroke-miterlimit="10"/><path fill="#f2f2f2" d="M348.5 113.5h298v196h-298z"/><path fill="none" stroke="#3f3d56" stroke-miterlimit="10" d="M276.5.5h483v381h-483zm.5 22h483"/><circle cx="286.5" cy="12.5" r="5" fill="#f86b75"/><circle cx="300.5" cy="12.5" r="5" fill="#fad375"/><circle cx="314.5" cy="12.5" r="5" fill="#8bcc55"/><circle cx="288.5" cy="9.5" r="5" fill="none" stroke="#3f3d56" stroke-miterlimit="10"/><circle cx="302.5" cy="9.5" r="5" fill="none" stroke="#3f3d56" stroke-miterlimit="10"/><circle cx="316.5" cy="9.5" r="5" fill="none" stroke="#3f3d56" stroke-miterlimit="10"/><path fill="none" stroke="#3f3d56" stroke-miterlimit="10" d="M372 92h298v196H372z"/><path fill="#21a32f" d="M610 331h55v15h-55z"/><path fill="none" stroke="#3f3d56" stroke-miterlimit="10" d="M615 327h55v15h-55z"/><path d="M524.39 206.546l-23.01-23.713a5.23 5.23 0 0 0-3.846-1.546h-.068a5.23 5.23 0 0 0-3.847 1.546l-23.01 23.713a5.078 5.078 0 0 0 0 7.418 5.68 5.68 0 0 0 7.762 0l13.634-14.252v36.746a5.5 5.5 0 0 0 10.99 0v-36.746l13.634 14.252a5.68 5.68 0 0 0 7.761 0 5.078 5.078 0 0 0 0-7.418z" fill="#21a32f"/></svg>

<svg data-name="Layer 1" xmlns="http://www.w3.org/2000/svg" width="760" height="693.824"><ellipse cx="185" cy="248.5" rx="52" ry="63.5" fill="#2f2e41"/><path d="M141.5 653.5l-30 3s-10 18-28 18-12 20 14 18 54-9 55-11-3-29-11-28z" fill="#3f3d56"/><path d="M141.5 653.5l-30 3s-10 18-28 18-12 20 14 18 54-9 55-11-3-29-11-28z" opacity=".1"/><path d="M99.5 478.5s34 5 47 21 4-61 4-61l-4-35-27 2-22 45z" fill="#3f3d56"/><path d="M99.5 478.5s34 5 47 21 4-61 4-61l-4-35-27 2-22 45z" opacity=".1"/><path d="M211.5 278.5s16-44 0-45-14 43-14 43z" fill="#a0616a"/><path d="M5 131h32.492A2.508 2.508 0 0 1 40 133.508v13.984A2.508 2.508 0 0 1 37.492 150H5v-19z" fill="#21a32f"/><path d="M2.646 131h32.846A2.508 2.508 0 0 1 38 133.508v13.984A2.508 2.508 0 0 1 35.492 150H2.646A2.646 2.646 0 0 1 0 147.354v-13.708A2.646 2.646 0 0 1 2.646 131z" fill="#2f2e41"/><circle cx="30" cy="140" r="2" fill="#21a32f"/><path d="M27.5 153.5s-25-48-27-25 13 42 13 42z" fill="#a0616a"/><path d="M173.011 268.59S195 270 197 282s-16 49-16 49l-24-2-3-24z" fill="#3f3d56"/><path d="M145.5 233.5s8 41-18 24 10 30 10 30 28 7 37-2-13.5-10.5-1-46c13.438-38.163-28-6-28-6z" fill="#a0616a"/><path d="M145.5 233.5s8 41-18 24 10 30 10 30 28 7 37-2-13.5-10.5-1-46c13.438-38.163-28-6-28-6z" opacity=".1"/><path d="M57 374s22.5 163.5 29.5 173.5 31 100 31 100l26-9a119.775 119.775 0 0 1-1-33c2-18-15-66-15-66l-25-148z" fill="#2f2e41"/><path d="M57 374s22.5 163.5 29.5 173.5 31 100 31 100l26-9a119.775 119.775 0 0 1-1-33c2-18-15-66-15-66l-25-148z" opacity=".1"/><path d="M51.5 366.5l22 63s-46 83-8 110c0 0 44 48 48 90 0 0 23-2 26-20 0 0-21-46-22-62s-24-35-24-35 44-71 54-83 11-58-14-58-82-5-82-5z" fill="#2f2e41"/><path d="M137.5 609.5s-17 21-22 18c0 0-4 43-13 55s19 11 29 0 29-53 29-58-17-18-23-15z" fill="#3f3d56"/><circle cx="162.5" cy="223.5" r="27" fill="#a0616a"/><path d="M133.5 255.5s1 17 16 21 27-6 27-6l4 8-13 32-24 78s-71 10-77-7 10-65 10-65l23-33 9-22 10-11z" fill="#21a32f"/><path d="M139.5 259.5S124 244 114 244s-18.5-6.5-18.5-6.5-33 48-53 106-48 76-34 90 36 11 45 26 9 13 15-10-1-86 28-113 43-77 43-77z" fill="#3f3d56"/><path d="M98.5 240.5s-40-36-45-51-24-43-28-39-26 13-21 20 17 16 24 41 56 57 56 57zm73 28s-17 1-27 54-9 177 0 187c0 0 9 11 10-9s16-113 12-137 5-76 18-85-13-10-13-10z" fill="#3f3d56"/><path d="M162.5 312.5s33 15 32 26-2 33-43-3z" fill="#3f3d56"/><path d="M174.5 312.5s-14 33 4 39 23-28 23-28 14-38 13-46-21-9-23-4-17 39-17 39z" fill="#3f3d56"/><ellipse cx="185" cy="251" rx="12" ry="44" fill="#2f2e41"/><ellipse cx="176" cy="201.5" rx="36" ry="17.5" fill="#2f2e41"/><path d="M179 217c-19.882 0-36-7.835-36-17.5 0-3.408 2.01-6.586 5.477-9.276-5.286 3.046-8.477 6.98-8.477 11.276 0 9.665 16.118 17.5 36 17.5 12.872 0 14.043-2 3-2z" opacity=".1"/><path d="M224.613 567.265a20.813 20.813 0 1 0 8.339-39.133l-.986 10.68-3.731-9.8a20.734 20.734 0 0 0-12.222 10.11 20.408 20.408 0 0 0-1.974 5.406 20.809 20.809 0 0 0 10.574 22.737z" fill="#57b894"/><path d="M232.029 693.797c-.495-9.271 8.313-16.181 16.631-20.306s17.9-7.978 21.735-16.433c5.513-12.15-3.918-25.329-11.12-36.561a125.3 125.3 0 0 1-12.92-26.63c-1.297-3.752-2.428-7.642-2.347-11.61.116-5.717 2.712-11.053 5.29-16.156q12.88-25.498 26.954-50.369" fill="none" stroke="#3f3d56" stroke-miterlimit="10"/><path d="M225.848 564.655a20.813 20.813 0 1 0 8.339-39.133l-.986 10.68-3.731-9.8a20.734 20.734 0 0 0-12.221 10.109 20.409 20.409 0 0 0-1.975 5.406 20.809 20.809 0 0 0 10.574 22.738z" fill="none" stroke="#3f3d56" stroke-miterlimit="10"/><path d="M255.608 509.074a20.788 20.788 0 0 1 16.682-10.968l.27 10.323 4.644-10.145a20.81 20.81 0 1 1-21.596 10.79z" fill="#57b894"/><path d="M257.255 505.593a20.788 20.788 0 0 1 16.682-10.968l.27 10.323 4.644-10.144a20.81 20.81 0 1 1-21.596 10.789z" fill="none" stroke="#3f3d56" stroke-miterlimit="10"/><path d="M255.628 620.19a20.81 20.81 0 0 0 23.426-34.076l-3.569 7.796-.27-10.445a.364.364 0 0 0-.05-.027 20.811 20.811 0 1 0-19.537 36.751z" fill="#57b894"/><path d="M257.13 616.64a20.81 20.81 0 0 0 23.427-34.075l-3.57 7.796-.269-10.445a.364.364 0 0 0-.05-.027 20.811 20.811 0 1 0-19.537 36.751z" fill="none" stroke="#3f3d56" stroke-miterlimit="10"/><path d="M229.33 651.374a20.801 20.801 0 1 0 6.256-15.574l7.225 15.118-11.507-9.11a20.616 20.616 0 0 0-1.973 9.566z" fill="#57b894"/><path d="M230.566 648.763a20.801 20.801 0 1 0 6.255-15.574l7.225 15.118-11.506-9.11a20.617 20.617 0 0 0-1.974 9.566z" fill="none" stroke="#3f3d56" stroke-miterlimit="10"/><path fill="none" stroke="#3f3d56" stroke-miterlimit="10" d="M4.5 691.5L411.5 691.5"/><path fill="#f2f2f2" d="M348.5 113.5H646.5V309.5H348.5z"/><path fill="none" stroke="#3f3d56" stroke-miterlimit="10" d="M276.5 0.5H759.5V381.5H276.5z"/><path fill="none" stroke="#3f3d56" stroke-miterlimit="10" d="M277 22.5L760 22.5"/><circle cx="286.5" cy="12.5" r="5" fill="#f86b75"/><circle cx="300.5" cy="12.5" r="5" fill="#fad375"/><circle cx="314.5" cy="12.5" r="5" fill="#8bcc55"/><circle cx="288.5" cy="9.5" r="5" fill="none" stroke="#3f3d56" stroke-miterlimit="10"/><circle cx="302.5" cy="9.5" r="5" fill="none" stroke="#3f3d56" stroke-miterlimit="10"/><circle cx="316.5" cy="9.5" r="5" fill="none" stroke="#3f3d56" stroke-miterlimit="10"/><path fill="none" stroke="#3f3d56" stroke-miterlimit="10" d="M372 92H670V288H372z"/><path fill="#21a32f" d="M610 331H665V346H610z"/><path fill="none" stroke="#3f3d56" stroke-miterlimit="10" d="M615 327H670V342H615z"/><path d="M524.39 206.546l-23.01-23.713a5.23 5.23 0 0 0-3.846-1.546h-.068a5.23 5.23 0 0 0-3.847 1.546l-23.01 23.713a5.078 5.078 0 0 0 0 7.418 5.68 5.68 0 0 0 7.762 0l13.634-14.252v36.746a5.5 5.5 0 0 0 10.99 0v-36.746l13.634 14.252a5.68 5.68 0 0 0 7.761 0 5.078 5.078 0 0 0 0-7.418z" fill="#21a32f"/></svg>
